/* XPM */
static char *aa10750ef4894bfc983423339ed54affJDGt8zylqrFYsE3e[] = {
/* columns rows colors chars-per-pixel */
"350 350 48 1 ",
"  c None",
". c #050202",
"X c #18120F",
"o c #111111",
"O c #231F1D",
"+ c #242323",
"@ c #282726",
"# c #2E2C2C",
"$ c #2E2D2C",
"% c #312D2C",
"& c #332F2D",
"* c #31302F",
"= c #333332",
"- c #353534",
"; c #373736",
": c #3C3C3B",
"> c #5B361D",
", c #734A23",
"< c #414140",
"1 c #464442",
"2 c #464645",
"3 c #4F4C4A",
"4 c #4E4C4B",
"5 c #5E5B58",
"6 c #686158",
"7 c #75736E",
"8 c #944C1D",
"9 c #945322",
"0 c #AF7132",
"q c #877F75",
"w c #B48350",
"e c #B09D7A",
"r c #928C82",
"t c #9C9893",
"y c #A7A39E",
"u c #B7AB9C",
"i c #BDAF9B",
"p c #AEA9A1",
"a c #B3AEA5",
"s c #BFB4A1",
"d c #C7B496",
"f c #D1BB97",
"g c #C6B8A1",
"h c #D9C298",
"j c #DCD1BB",
"k c #F6E0B0",
"l c #EEEBE8",
"z c #FBFBF9",
/* pixels */
"                                                                                                                                                                              #o                                                                                                                                                                              ",
"                                                                                                                                                                              #o                                                                                                                                                                              ",
"                                                                                                                                                                              #o                                                                                                                                                                              ",
"                                                                                                                                                                              #o                                                                                                                                                                              ",
"                                                                                                                                                                              #o                                                                                                                                                                              ",
"                                                                                                                                                                              #o                                                                                                                                                                              ",
"                                                                                                                                                                              +o                                                                                                                                                                              ",
"                                                                                                                                                                              +o                                                                                                                                                                              ",
"                                                                                                                                                                              +o                                                                                                                                                                              ",
"                                                                                                                                                                              +o                                                                                                                                                                              ",
"                                                                                                                                                                              +o                                                                                                                                                                              ",
"                                                                                                                                                                              +o                                                                                                                                                                              ",
"                                                                                                                                                                              +o                                                                                                                                                                              ",
"                                                                                                                                                                              +o                                                                                                                                                                              ",
"                                                                                                                                                                              +o                                                                                                                                                                              ",
"                                                                                                                                                                              +o                                                                                                                                                                              ",
"                                                                                                                                                                              +o                                                                                                                                                                              ",
"                                                                                                                                                                              +o                                                                                                                                                                              ",
"                                                                                                                                                                              +o                                                                                                                                                                              ",
"                                                                                                                                                                              +o                                                                                                                                                                              ",
"                                                                                                                                                                              +o                                                                                                                                                                              ",
"                                                                                                                                                                              +o                                                                                                                                                                              ",
"                                                                                                                                                                              +o                                                                                                                                                                              ",
"                                                                                                                                                                              +o                                                                                                                                                                              ",
"                                                                                                                                                                              +o                                                                                                                                                                              ",
"                                                                                                                                                                              +o                                                                                                                                                                              ",
"                                                                                                                                                                              +o                                                                                                                                                                              ",
"                                                                                                                                                                              +o                                                                                                                                                                              ",
"                                                                                                                                                                              +o                                                                                                                                                                              ",
"                                                                                                                                                                              +o                                                                                                                                                                              ",
"                                                                                                                                                                              +o                                                                                                                                                                              ",
"                                                                                                                                                                              +o                                                                                                                                                                              ",
"                                                                                                                                                                              +o                                                                                                                                                                              ",
"                                                                                                                                                                              +o                                                                                                                                                                              ",
"                                                                                                                                                                              +o                                                                                                                                                                              ",
"                                                                                                                                                                              +o                                                                                                                                                                              ",
"                                                                                                                                                                              +o                                                                                                                                                                              ",
"                                                                                                                                                                              +o                                                                                                                                                                              ",
"                                                                                                                                                                              +o                                                                                                                                                                              ",
"                                                                                                                                                                              +o                                                                                                                                                                              ",
"                                                                                                                                                                              +o                                                                                                                                                                              ",
"                                                                                                                                                                              +o                                                                                                                                                                              ",
"                                                                                                                                                                              #o                                                                                                                                                                              ",
"                                                                                                                                                                              +o                                                                                                                                                                              ",
"                                                                                                                                                                              +o                                                                                                                                                                              ",
"                                                                                                                                                                              +o                                                                                                                                                                              ",
"                                                                                                                                                                              +o                                                                                                                                                                              ",
"                                                                                                                                                                              +o                                                                                                                                                                              ",
"                                                                                                                                                                              +o                                                                                                                                                                              ",
"                                                                                                                                                                              +o                                                                                                                                                                              ",
"                                                                                                                                                                              +o                                                                                                                                                                              ",
"                                                                                                                                                                              +o                                                                                                                                                                              ",
"                                                                                                                                                                              +o                                                                                                                                                                              ",
"                                                                                                                                                                              +o                                                                                                                                                                              ",
"                                                                                                                                                                              +o                                                                                                                                                                              ",
"                                                                                                                                                                              +o                                                                                                                                                                              ",
"                                                                                                                                                                              +o                                                                                                                                                                              ",
"                                                                                                                                                                              +o                                                                                                                                                                              ",
"                                                                                                                                                                              +o                                                                                                                                                                              ",
"                                                                                                                                                                              +o                                                                                                                                                                              ",
"                                                                                                                                                                              +o                                                                                                                                                                              ",
"                                                                                                                                                                              +o                                                                                                                                                                              ",
"                                                                                                                                                                              +o                                                                                                                                                                              ",
"                                                                                                                                                                              +o                                                                                                                                                                              ",
"                                                                                                                                                                              +o                                                                                                                                                                              ",
"                                                                                                                                                                              +o                                                                                                                                                                              ",
"                                                                                                                                                                              +o                                                                                                                                                                              ",
"                                                                                                                                                                              +o                                                                                                                                                                              ",
"                                                                                                                                                                              #o                                                                                                                                                                              ",
"                                                                                                                                                                              #o                                                                                                                                                                              ",
"                                                                                                                                                                              +o                                                                                                                                                                              ",
"                                                                                                                                                                              +o                                                                                                                                                                              ",
"                                                                                                                                                                              +o                                                                                                                                                                              ",
"                                                                                                                                                                              #o                                                                                                                                                                              ",
"                                                                                                                                                                              #o                                                                                                                                                                              ",
"                                                                                                                                                                              #o                                                                                                                                                                              ",
"                                                                                                                                                                              #o                                                                                                                                                                              ",
"                                                                                                                                                                              #o                                                                                                                                                                              ",
"                                                                                                                                                                              #o                                                                                                                                                                              ",
"                                                                                                                                                                              #o                                                                                                                                                                              ",
"                                                                                                                                                                              #o                                                                                                                                                                              ",
"                                                                                                                                                                              #o                                                                                                                                                                              ",
"                                                                                                                                                                              +o                                                                                                                                                                              ",
"                                                                                                                                                                              #o                                                                                                                                                                              ",
"                                                                                                                                                                              #o                                                                                                                                                                              ",
"                                                                                                                                                                              #o                                                                                                                                                                              ",
"                                                                                                                                                                              #o                                                                                                                                                                              ",
"                                                                                                                                                                              #o                                                                                                                                                                              ",
"                                                                                                                                                                              #o                                                                                                                                                                              ",
"                                                                                                                                                                              #o                                                                                                                                                                              ",
"                                                                                                                                                                              #o                                                                                                                                                                              ",
"                                                                                                                                                                              #o                                                                                                                                                                              ",
"                                                                                                                                                                              #o                                                                                                                                                                              ",
"                                                                                                                                                                              #o                                                                                                                                                                              ",
"                                                                                                                                                                              #o                                                                                                                                                                              ",
"                                                                                                                                                                              +o                                                                                                                                                                              ",
"                                                                                                                                                                              +o                                                                                                                                                                              ",
"                                                                                                                                                                              #o                                                                                                                                                                              ",
"                                                                                                                                                                              #o                                                                                                                                                                              ",
"                                                                                                                                                                              #o                                                                                                                                                                              ",
"                                                                                                                                                                              #o                                                                                                                                                                              ",
"                                                                                                                                                                              +o                                                                                                                                                                              ",
"                                                                                                                                                                              #o                                                                                                                                                                              ",
"                                                                                                                                                                              #o                                                                                                                                                                              ",
"                                                                                                                                                                              +o                                                                                                                                                                              ",
"                                                                                                                                                                              +o                                                                                                                                                                              ",
"                                                                                                                                                                              +o                                                                                                                                                                              ",
"                                                                                                                                                                              +o                                                                                                                                                                              ",
"                                                                                                                                                                              #o                                                                                                                                                                              ",
"                                                                                                                                                                              #o                                                                                                                                                                              ",
"                                                                                                                                                                              #o                                                                                                                                                                              ",
"                                                                                                                                                                              #o                                                                                                                                                                              ",
"                                                                                                                                                                              #o                                                                                                                                                                              ",
"                                                                                                                                                                              #o                                                                                                                                                                              ",
"                                                                                                                                                                              #o                                                                                                                                                                              ",
"                                                                                                                                                                              #o                                                                                                                                                                              ",
"                                                                                                                                                                              #o                                                                                                                                                                              ",
"                                                                                                                                                                              +o                                                                                                                                                                              ",
"                                                                                                                                                                              +o                                                                                                                                                                              ",
"                                                                                                                                                                              #o                                                                                                                                                                              ",
"                                                                                                                                                                              #o                                                                                                                                                                              ",
"                                                                                                                                                                              #o                                                                                                                                                                              ",
"                                                                                                                                                                              #o                                                                                                                                                                              ",
"                                                                                                                                                                              #o                                                                                                                                                                              ",
"                                                                                                                                                                              #o                                                                                                                                                                              ",
"                                                                                                                                                                              #o                                                                                                                                                                              ",
"                                                                                                                                                                              #o                                                                                                                                                                              ",
"                                                                                                                                                                              #o                                                                                                                                                                              ",
"                                                                                                                                                                              #o                                                                                                                                                                              ",
"                                                                                                                                                                              #o                                                                                                                                                                              ",
"                                                                                                                                                                              #o                                                                                                                                                                              ",
"                                                                                                                                                                              #o                                                                                                                                                                              ",
"                                                                                                                                                                              #o                                                                                                                                                                              ",
"                                                                                                                                                                              #o                                                                                                                                                                              ",
"                                                                                                                                                                              #o                                                                                                                                                                              ",
"                                                                                                                                                                              #o                                                                                                                                                                              ",
"                                                                                                                                                                              #o                                                                                                                                                                              ",
"                                                                                                                                                                              +o                                                                                                                                                                              ",
"                                                                                                                                                                              +o                                                                                                                                                                              ",
"                                                                                                                                                                              +o                                                                                                                                                                              ",
"                                                                                                                                                                              +o                                                                                                                                                                              ",
"                                                                                                                                                                              +o                                                                                                                                                                              ",
"                                                                                                                                                                              #o                                                                                                                                                                              ",
"                                                                                                                                                                              w#&                                                                                                                                                                             ",
"                                                                                                                                                                             wu#X                                                                                                                                                                             ",
"                                                                                                                                                                             w0OX                                                                                                                                                                             ",
"                                                                                                                                                                             wdOX+                                                                                                                                                                            ",
"                                                                                                                                                                             wdOX+                                                                                                                                                                            ",
"                                                                                                                                                                             wdOX#                                                                                                                                                                            ",
"                                                                                                                                                                             wdOX#                                                                                                                                                                            ",
"                                                                                                                                                                             wdOX#                                                                                                                                                                            ",
"                                                                                                                                                                             9qOX#                                                                                                                                                                            ",
"                                                                                                                                                                            w00000w                                                                                                                                                                           ",
"                                                                                                                                                                          90088,>880                                                                                                                                                                          ",
"                                                                                                                                                                         98,O......O8                                                                                                                                                                         ",
"                                                                                                                                                                         8eh0,>>@OOXO8                                                                                                                                                                        ",
"                                                                                                                                                                        90e006,>>>>>,89                                                                                                                                                                       ",
"                                                                                                                                                                        ,>,eiqO.....X@>                                                                                                                                                                       ",
"                                                                                                                                                                       &>>,kkf>X....X>O#                                                                                                                                                                      ",
"                                                                                                                                                                       #,,,kkh>X....X8&                                                                                                                                                                       ",
"                                                                                                                                                                        9,,kkh>X....X89                                                                                                                                                                       ",
"                                                                                                                                                                        9,,kkh>X....X89                                                                                                                                                                       ",
"                                                                                                                                                                        9,,kkh>X....X89                                                                                                                                                                       ",
"                                                                                                                                                                        9,,kkh>X....X89                                                                                                                                                                       ",
"                                                                                                                                                                        9,,kkh>X....X89                                                                                                                                                                       ",
"                                                                                                                                                                        9,,kkh>X....X89                                                                                                                                                                       ",
"                                                                                                                                                                        9,,kkh>X....X89                                                                                                                                                                       ",
"                                                                                                                                                                        9,,kkh>X....X89                                                                                                                                                                       ",
"                                                                                                                                                                        9,,jjf>XX...X89                                                                                                                                                                       ",
"                                                                                                                                                                        98,r06,>>>>>>89                                                                                                                                                                       ",
"                                                                                                                                                                      19edeerq666,,,>>,9                                                                                                                                                                      ",
"                                                                                                                                                                     5><4<*@OXXXXXX.XXXXO&                                                                                                                                                                    ",
"                                                                                                                                                                    4:@OOOXOXXXXXXXXOXOOOO+                                                                                                                                                                   ",
"                                                                                                                                                                   &XXO#=-=#@OX.........XOo#                                                                                                                                                                  ",
"                                                                                                                                                                 &OXO<66664<-@X.............o                                                                                                                                                                 ",
"                                                                                                                                                                &OXX<777764<*OX..............o                                                                                                                                                                ",
"                                                                                                                                                                &OXO:442<-*@OXXX.X............+                                                                                                                                                               ",
"                                                                                                                                                                #@OOOOOOXXXXXXXXXXXXXXXXXXXX..&                                                                                                                                                               ",
"                                                                                                                                                                **#@@OOXOXOXXXXXXXXXXOXOOOO@@@&                                                                                                                                                               ",
"                                                                                                                                                               &::-=*##@@@O@OOOOOOOO@@@@@##*=--#                                                                                                                                                              ",
"                                                                                                                                                              &<<::--=**##@@OOOOOO@@@##*===-;---&                                                                                                                                                             ",
"                                                                                                                                                            #<<<<:::--=**#@@@@@OO@@@##**==-;-;;--&                                                                                                                                                            ",
"                                                                                                                                                           &<<<<<:::--==*##@@@O@@@@@##**==----:----                                                                                                                                                           ",
"                                                                                                                                                          &<<<<<::::---=*###@@@@@@@###**==----;:---=#                                                                                                                                                         ",
"                                                                                                                                                        #<2<<<<::::----=**##@@@@@@#@#***==----;;;----&                                                                                                                                                        ",
"                                                                                                                                                       &<2<<<<<::::---==**###@@@@@@##***==-----;;-:---&                                                                                                                                                       ",
"                                                                                                                                                      &22<<<<<::::----==**###@#@#####**===------;;----;-+                                                                                                                                                     ",
"                                                                                                                                                    1222<<<<<:::::----==**####@#@@###***===-----;;-:--;--&                                                                                                                                                    ",
"                                                                                                                                                   &22<<<<<<<:::::----==**###########***====----;;;;;;;---&                                                                                                                                                   ",
"                                                                                                                                                  &2222<<<<<:::::-----==**####@#@####***====----;;--;;;:---=                                                                                                                                                  ",
"                                                                                                                                                 2222<<<<<<<:::::-----==***##########***====--------;;-;-----#                                                                                                                                                ",
"                                                                                                                                               #22222<<<<<<:::::;----===***##########****====----------;;----*&                                                                                                                                               ",
"                                                                                                                                              &22222<<<<<<::::::-----===***#########****======----;;---;;;-----&                                                                                                                                              ",
"                                                                                                                                             &22222<<<<<<::::::------===***#########*****=====---------;;;-------+                                                                                                                                            ",
"                                                                                                                                           1242222<<2<<<<:<:::--:----===***#########*****======----;----;;;-;;;;;=&                                                                                                                                           ",
"                                                                                                                                          &2222222<<<<<<::::::-------===****########*****======---------;;;;;;;;;;-*                                                                                                                                          ",
"                                                                                                                                         &2422222<<<<<<:::::::-:-----===****########******======--------;;;;;---;;;;*                                                                                                                                         ",
"                                                                                                                                        2422222<2<<<<<:::::::-------===******#######******=======-------;;;;;---:-;;-=#                                                                                                                                       ",
"                                                                                                                                      #242222222<<<<<::<::::;-:;;---===******######*******========--------;;--------;-=&                                                                                                                                      ",
"                                                                                                                                     &22222222<<<<<<<::::::::;;;;---===******#######*******========--------;;----------=&                                                                                                                                     ",
"                                                                                                                                    4242422222<2<<<<:::::::---;;;---===******########*******========-------------;;;;;---=+                                                                                                                                   ",
"                                                                                                                                  12422222222<<<<<<:::::::----;;---====******########********=========------------;;;;-----&                                                                                                                                  ",
"                                                                                                                                 4242242222<<<<<<<:::::::-;:------====*****#*########*********==========------------;;;-----&                                                                                                                                 ",
"                                                                                                                                &2424222222<<<<<:<:::::-:;;;------===******###########**********========------------;;-------&                                                                                                                                ",
"                                                                                                                              144424222222<<<<<<<:::::::;;:;-----====******###########**********=========-------;;;-----------=#                                                                                                                              ",
"                                                                                                                             444424222222<<<<<<:<:::::-::;;;----=====******############************========------;;-------;----=&                                                                                                                             ",
"                                                                                                                            444222222222<<2<<<<<:::::::--;------===******###############***********=========-----;;;--;;;;;;---;-&                                                                                                                            ",
"                                                                                                                           442442422222<<<<<<<::::::::----------===******##############***************======----------;;;;;;---;--&+                                                                                                                          ",
"                                                                                                                         1444422222222<<<<<<<::<:::::-----===**##@@@@@@OOOOOOOOOOOOOOOOOO@O@@@@@@####***====------------------;;----&                                                                                                                         ",
"                                                                                                                        4444242422222<<<<<:::::----==***====-::<222224444446666666666644422<::--=*#@OOOOOOOO@@@##*=-----------;;;----&                                                                                                                        ",
"                                                                                                                       444444222222<<:::::::<<2446667qqreeeeudddhllllllllllllzlzzzlzllllllllljddddieeerrq76664<--#@O@OO@@#*--;;;;;----&                                                                                                                       ",
"                                                                                                                     144444422<::--:<24667qreeuddffhhhhhfhhhhfhhhlzzzzzzzzzzzzzzzzzzzzzzzzzzzjhhhhhhhhhhhhhhhhffdueerq662-*@OOO@#=-----*#                                                                                                                     ",
"                                                                                                                    44442<-*#*:467qreuuidffdfffffffffffffffffffhhkzzzzzzzzzzzzzzzzzzzzzzzzzzlhhhfhhfhfhhhhfhhhhfhhhhhhhfgsuerq64;@OO@#=--&                                                                                                                    ",
"                                                                                                                   42:=*=:46qtyuisdddddddddddddfdfdffffffffffffffjzzzzzzzzzzzzzzzzzzzzzzzzzzkfffhffffhfffffffffffffgfggfgfggggggiyr76:#O@#&                                                                                                                   ",
"                                                                                                                 +&*-26qtpisiiiiiiidiiddddddddddddfddffffffffffffhlzzzzzzzzzzzzzzzzzzzzzzzzlhffffffffffffffffffffgffgfgggggggggggggggiyr62*@&                                                                                                                 ",
"                                                                                                               #&:6qtpiiuuiiiiiiiiiiiiiiiiddddddddddddddddddfdffffjzzzzzzzzzzzzzzzzzzzzzzzzjfgfffffffffffgfgfggggfgggggggggggggggggggssssayq6:&                                                                                                               ",
"                                                                                                             #*4qypauuuuuuuiuiiiiiiiiididididddddddddddddfddddddddflzzzzzzzzzzzzzzzzzzzzzzlgggggdgggggggggggggfggggggggggggggggsgsgssssssaaaay7<&                                                                                                             ",
"                                                                                                            &4rppppppuuuuuuuiiuiiiiiiiiiiiidiiidididdddddddddddgdgdglzzzzzzzzzzzzzzzzzzzzlhdgdgdggdgdgdggggggggggggggggggggggsgsgsssssssasaaapay7-                                                                                                            ",
"                                                                                                           &6ypyypppppupuuuuuuiuiiiiiiiiiiiiidiiiidiisiiisiisssssdsdhlzzzzzzzzzzzzzzzzzzlhssssdsdsgsdggsdgggggsgggggggsgsssssgssssssssasaaaaappppq&                                                                                                           ",
"                                                                                                           <yyyyyyyypppupuuuuuuiuuiuiiiiiiiiiiiiisiiiiidididididsssssglzzzzzzzzzzzzzzzzlhssdsdssssdsssdsssssssgsgsssssgsgsgsssssssssssasaaaappppyy:                                                                                                           ",
"                                                                                                           &ryyyyyyyyppppupuuuuuuuuuiuiuiiiiiiiiiiiiiiiiiiisiisisidsdsdjlzzzzzzzzzzzzljgssdssssdssssdsssssdsssssssgsssssssssssssssasaaaaaaaapppypr&                                                                                                           ",
"                                                                                                            4ryytyyyyyyypypppuuuuuiuuuuuuuuuiuiiiiiiiiiiiiiiiiiiisiisissgjllzzzzzzlljgsisisisdisidiisisisssssssssssssssssssssssasasaaaaaaaappppyq&                                                                                                            ",
"                                                                                                             &6ryyyyyyyyyyypypyupuuuuuuuuuuuuuuuuuuuiuiiuiiiiiiiiiiiisisiisghjjjjjgsissiiiiiiiiiiiiiiiisiiiisisissssassasasasaasaaaaaaaaapaaayq5#                                                                                                             ",
"                                                                                                               #57rtyyyyyyyyyyyypypyppppuuuuuuuuuuuuuuuuuuuuiaiiiiiiiiiiiisiiuiiiusiiiiisiiisiiiiiiiisiiasisaiasaiaasaasaaaaaaaaaaaaaaaaapyr741                                                                                                               ",
"                                                                                                                  1457rtyyyyyyyyyyyyyyypyypypyuppupupuuuuuuuuuuaauaiaiaiiiaiaiiaiaiaiaiiaiaiaiaiaiiaiaaiaaaaiaaaaasaaaaaaaaaaaaaaaaaapyr7541                                                                                                                  ",
"                                                                                                                      1457qrttyyypyypyyyyyyyypyyyyyypypppppppppuuuuauuuauauuauauaaaaaaaauuuuaauaaaaaauaaauaaaaaaaaaaaaaaaaaaaaapytrq7541                                                                                                                      ",
"                                                                                                                           114577qrttyyyyypyyyyyyyyyyyyypypppppppppppppppppupapauaapupupapappppppppppapppappppaaaaaaaaapyytrq75541                                                                                                                            ",
"                                                                                                                                  1145577qqrrttttyyyyyypyyyyyyyppppppppppppypppppppppppppppppppapppppppappppyyyttrrq7755411                                                                                                                                   ",
"                                                                                                                                            11445557777qqqrrrttttttttytytyyyyyyyyyyyyyyyytytttttrrrrqq777755554411                                                                                                                                            ",
"                                                                                                                                                         1111444444455555555555555555554544444441111                                                                                                                                                          ",
"                                                                                                                                                                                                                                                                                                                                                              ",
"                                                                                                                                                                                                                                                                                                                                                              ",
"                                                                                                                                                                                                                                                                                                                                                              ",
"                                                                                                                                                                                                                                                                                                                                                              ",
"                                                                                                                                                                                                                                                                                                                                                              ",
"                                                                                                                                                                                                                                                                                                                                                              ",
"                                                                                                                                                                                                                                                                                                                                                              ",
"                                                                                                                                                                                                                                                                                                                                                              ",
"                                                                                                                                                                                                                                                                                                                                                              ",
"                                                                                                                                                                                                                                                                                                                                                              ",
"                                                                                                                                                                                                                                                                                                                                                              ",
"                                                                                                                                                                                                                                                                                                                                                              ",
"                                                                                                                                                                                                                                                                                                                                                              ",
"                                                                                                                                                                                                                                                                                                                                                              ",
"                                                                                                                                                                                                                                                                                                                                                              ",
"                                                                                                                                                                                                                                                                                                                                                              ",
"                                                                                                                                                                                                                                                                                                                                                              ",
"                                                                                                                                                                                                                                                                                                                                                              ",
"                                                                                                                                                                                                                                                                                                                                                              ",
"                                                                                                                                                                                                                                                                                                                                                              ",
"                                                                                                                                                                                                                                                                                                                                                              ",
"                                                                                                                                                                                                                                                                                                                                                              ",
"                                                                                                                                                                                                                                                                                                                                                              ",
"                                                                                                                                                                                                                                                                                                                                                              ",
"                                                                                                                                                                                                                                                                                                                                                              ",
"                                                                                                                                                                                                                                                                                                                                                              ",
"                                                                                                                                                                                                                                                                                                                                                              ",
"                                                                                                                                                                                                                                                                                                                                                              ",
"                                                                                                                                                                                                                                                                                                                                                              ",
"                                                                                                                                                                                                                                                                                                                                                              ",
"                                                                                                                                                                                                                                                                                                                                                              ",
"                                                                                                                                                                                                                                                                                                                                                              ",
"                                                                                                                                                                                                                                                                                                                                                              ",
"                                                                                                                                                                                                                                                                                                                                                              ",
"                                                                                                                                                                                                                                                                                                                                                              ",
"                                                                                                                                                                                                                                                                                                                                                              ",
"                                                                                                                                                                                                                                                                                                                                                              ",
"                                                                                                                                                                                                                                                                                                                                                              ",
"                                                                                                                                                                                                                                                                                                                                                              ",
"                                                                                                                                                                                                                                                                                                                                                              ",
"                                                                                                                                                                                                                                                                                                                                                              ",
"                                                                                                                                                                                                                                                                                                                                                              ",
"                                                                                                                                                                                                                                                                                                                                                              ",
"                                                                                                                                                                                                                                                                                                                                                              ",
"                                                                                                                                                                                                                                                                                                                                                              ",
"                                                                                                                                                                                                                                                                                                                                                              ",
"                                                                                                                                                                                                                                                                                                                                                              ",
"                                                                                                                                                                                                                                                                                                                                                              ",
"                                                                                                                                                                                                                                                                                                                                                              ",
"                                                                                                                                                                                                                                                                                                                                                              ",
"                                                                                                                                                                                                                                                                                                                                                              ",
"                                                                                                                                                                                                                                                                                                                                                              ",
"                                                                                                                                                                                                                                                                                                                                                              ",
"                                                                                                                                                                                                                                                                                                                                                              ",
"                                                                                                                                                                                                                                                                                                                                                              ",
"                                                                                                                                                                                                                                                                                                                                                              ",
"                                                                                                                                                                                                                                                                                                                                                              ",
"                                                                                                                                                                                                                                                                                                                                                              ",
"                                                                                                                                                                                                                                                                                                                                                              ",
"                                                                                                                                                                                                                                                                                                                                                              ",
"                                                                                                                                                                                                                                                                                                                                                              ",
"                                                                                                                                                                                                                                                                                                                                                              ",
"                                                                                                                                                                                                                                                                                                                                                              ",
"                                                                                                                                                                                                                                                                                                                                                              ",
"                                                                                                                                                                                                                                                                                                                                                              ",
"                                                                                                                                                                                                                                                                                                                                                              ",
"                                                                                                                                                                                                                                                                                                                                                              ",
"                                                                                                                                                                                                                                                                                                                                                              ",
"                                                                                                                                                                                                                                                                                                                                                              ",
"                                                                                                                                                                                                                                                                                                                                                              ",
"                                                                                                                                                                                                                                                                                                                                                              ",
"                                                                                                                                                                                                                                                                                                                                                              ",
"                                                                                                                                                                                                                                                                                                                                                              ",
"                                                                                                                                                                                                                                                                                                                                                              ",
"                                                                                                                                                                                                                                                                                                                                                              ",
"                                                                                                                                                                                                                                                                                                                                                              ",
"                                                                                                                                                                                                                                                                                                                                                              ",
"                                                                                                                                                                                                                                                                                                                                                              ",
"                                                                                                                                                                                                                                                                                                                                                              ",
"                                                                                                                                                                                                                                                                                                                                                              ",
"                                                                                                                                                                                                                                                                                                                                                              ",
"                                                                                                                                                                                                                                                                                                                                                              ",
"                                                                                                                                                                                                                                                                                                                                                              ",
"                                                                                                                                                                                                                                                                                                                                                              ",
"                                                                                                                                                                                                                                                                                                                                                              ",
"                                                                                                                                                                                                                                                                                                                                                              ",
"                                                                                                                                                                                                                                                                                                                                                              ",
"                                                                                                                                                                                                                                                                                                                                                              ",
"                                                                                                                                                                                                                                                                                                                                                              ",
"                                                                                                                                                                                                                                                                                                                                                              ",
"                                                                                                                                                                                                                                                                                                                                                              ",
"                                                                                                                                                                                                                                                                                                                                                              ",
"                                                                                                                                                                                                                                                                                                                                                              ",
"                                                                                                                                                                                                                                                                                                                                                              ",
"                                                                                                                                                                                                                                                                                                                                                              ",
"                                                                                                                                                                                                                                                                                                                                                              ",
"                                                                                                                                                                                                                                                                                                                                                              ",
"                                                                                                                                                                                                                                                                                                                                                              ",
"                                                                                                                                                                                                                                                                                                                                                              ",
"                                                                                                                                                                                                                                                                                                                                                              ",
"                                                                                                                                                                                                                                                                                                                                                              ",
"                                                                                                                                                                                                                                                                                                                                                              ",
"                                                                                                                                                                                                                                                                                                                                                              ",
"                                                                                                                                                                                                                                                                                                                                                              ",
"                                                                                                                                                                                                                                                                                                                                                              ",
"                                                                                                                                                                                                                                                                                                                                                              ",
"                                                                                                                                                                                                                                                                                                                                                              ",
"                                                                                                                                                                                                                                                                                                                                                              ",
"                                                                                                                                                                                                                                                                                                                                                              ",
"                                                                                                                                                                                                                                                                                                                                                              ",
"                                                                                                                                                                                                                                                                                                                                                              ",
"                                                                                                                                                                                                                                                                                                                                                              ",
"                                                                                                                                                                                                                                                                                                                                                              ",
"                                                                                                                                                                                                                                                                                                                                                              ",
"                                                                                                                                                                                                                                                                                                                                                              ",
"                                                                                                                                                                                                                                                                                                                                                              ",
"                                                                                                                                                                                                                                                                                                                                                              ",
"                                                                                                                                                                                                                                                                                                                                                              ",
"                                                                                                                                                                                                                                                                                                                                                              ",
"                                                                                                                                                                                                                                                                                                                                                              "
};
